dist/img/basket768.svg

<svg width="47" height="44" viewBox="0 0 47 44" fill="none" xmlns="http://www.w3.org/2000/svg">
<path d="M17.75 22.5C16.375 22.5 15.2625 23.625 15.2625 25C15.2625 26.375 16.375 27.5 17.75 27.5C19.125 27.5 20.25 26.375 20.25 25C20.25 23.625 19.125 22.5 17.75 22.5ZM10.25 2.5V5H12.75L17.25 14.4875L15.5625 17.55C15.3625 17.9 15.25 18.3125 15.25 18.75C15.25 20.125 16.375 21.25 17.75 21.25H32.75V18.75H18.275C18.1 18.75 17.9625 18.6125 17.9625 18.4375L18 18.2875L19.125 16.25H28.4375C29.375 16.25 30.2 15.7375 30.625 14.9625L35.1 6.85C35.2 6.675 35.25 6.4625 35.25 6.25C35.25 5.5625 34.6875 5 34 5H15.5125L14.3375 2.5H10.25ZM30.25 22.5C28.875 22.5 27.7625 23.625 27.7625 25C27.7625 26.375 28.875 27.5 30.25 27.5C31.625 27.5 32.75 26.375 32.75 25C32.75 23.625 31.625 22.5 30.25 22.5Z" fill="#2D2D2D"/>
<path d="M8.328 41H6.864C6.712 41 6.584 40.96 6.48 40.88C6.38 40.8 6.286 40.682 6.198 40.526L4.35 37.61C4.302 37.526 4.25 37.458 4.194 37.406C4.142 37.35 4.084 37.306 4.02 37.274C3.96 37.238 3.89 37.214 3.81 37.202C3.734 37.19 3.646 37.184 3.546 37.184H2.58V41H0.966V32.324H2.58V35.96H3.396C3.56 35.96 3.702 35.932 3.822 35.876C3.942 35.82 4.054 35.716 4.158 35.564L6.06 32.756C6.14 32.628 6.234 32.524 6.342 32.444C6.45 32.364 6.58 32.324 6.732 32.324H8.112L5.754 35.804C5.654 35.956 5.538 36.082 5.406 36.182C5.274 36.282 5.128 36.36 4.968 36.416C5.208 36.484 5.41 36.592 5.574 36.74C5.742 36.884 5.902 37.084 6.054 37.34L8.328 41ZM11.3427 34.748C11.7987 34.748 12.2127 34.822 12.5847 34.97C12.9607 35.118 13.2807 35.328 13.5447 35.6C13.8127 35.872 14.0187 36.204 14.1627 36.596C14.3067 36.988 14.3787 37.426 14.3787 37.91C14.3787 38.398 14.3067 38.838 14.1627 39.23C14.0187 39.622 13.8127 39.956 13.5447 40.232C13.2807 40.508 12.9607 40.72 12.5847 40.868C12.2127 41.016 11.7987 41.09 11.3427 41.09C10.8827 41.09 10.4647 41.016 10.0887 40.868C9.71272 40.72 9.39072 40.508 9.12272 40.232C8.85872 39.956 8.65272 39.622 8.50472 39.23C8.36072 38.838 8.28872 38.398 8.28872 37.91C8.28872 37.426 8.36072 36.988 8.50472 36.596C8.65272 36.204 8.85872 35.872 9.12272 35.6C9.39072 35.328 9.71272 35.118 10.0887 34.97C10.4647 34.822 10.8827 34.748 11.3427 34.748ZM11.3427 39.95C11.8547 39.95 12.2327 39.778 12.4767 39.434C12.7247 39.09 12.8487 38.586 12.8487 37.922C12.8487 37.258 12.7247 36.752 12.4767 36.404C12.2327 36.056 11.8547 35.882 11.3427 35.882C10.8227 35.882 10.4367 36.058 10.1847 36.41C9.93672 36.758 9.81272 37.262 9.81272 37.922C9.81272 38.582 9.93672 39.086 10.1847 39.434C10.4367 39.778 10.8227 39.95 11.3427 39.95ZM16.9913 39.404C17.1593 39.608 17.3413 39.752 17.5373 39.836C17.7373 39.92 17.9533 39.962 18.1853 39.962C18.4093 39.962 18.6113 39.92 18.7913 39.836C18.9713 39.752 19.1233 39.624 19.2473 39.452C19.3753 39.28 19.4733 39.064 19.5413 38.804C19.6093 38.54 19.6433 38.23 19.6433 37.874C19.6433 37.514 19.6133 37.21 19.5533 36.962C19.4973 36.71 19.4153 36.506 19.3073 36.35C19.1993 36.194 19.0673 36.08 18.9113 36.008C18.7593 35.936 18.5853 35.9 18.3893 35.9C18.0813 35.9 17.8193 35.966 17.6033 36.098C17.3873 36.226 17.1833 36.408 16.9913 36.644V39.404ZM16.9133 35.684C17.1653 35.4 17.4513 35.17 17.7713 34.994C18.0913 34.818 18.4673 34.73 18.8993 34.73C19.2353 34.73 19.5413 34.8 19.8173 34.94C20.0973 35.08 20.3373 35.284 20.5373 35.552C20.7413 35.816 20.8973 36.144 21.0053 36.536C21.1173 36.924 21.1733 37.37 21.1733 37.874C21.1733 38.334 21.1113 38.76 20.9873 39.152C20.8633 39.544 20.6853 39.884 20.4533 40.172C20.2253 40.46 19.9473 40.686 19.6193 40.85C19.2953 41.01 18.9313 41.09 18.5273 41.09C18.1833 41.09 17.8893 41.038 17.6453 40.934C17.4013 40.826 17.1833 40.678 16.9913 40.49V43.01H15.5093V34.844H16.4153C16.6073 34.844 16.7333 34.934 16.7933 35.114L16.9133 35.684ZM21.8525 35.51C22.0845 35.286 22.3725 35.104 22.7165 34.964C23.0605 34.82 23.4725 34.748 23.9525 34.748C24.3325 34.748 24.6705 34.794 24.9665 34.886C25.2625 34.974 25.5105 35.096 25.7105 35.252C25.9145 35.404 26.0685 35.58 26.1725 35.78C26.2805 35.976 26.3345 36.182 26.3345 36.398C26.3345 36.514 26.3165 36.636 26.2805 36.764C26.2485 36.888 26.1925 37.01 26.1125 37.13C26.0365 37.25 25.9345 37.362 25.8065 37.466C25.6785 37.566 25.5205 37.652 25.3325 37.724C25.6685 37.852 25.9385 38.04 26.1425 38.288C26.3505 38.536 26.4545 38.842 26.4545 39.206C26.4545 39.506 26.3845 39.772 26.2445 40.004C26.1085 40.236 25.9265 40.434 25.6985 40.598C25.4705 40.758 25.2085 40.88 24.9125 40.964C24.6205 41.048 24.3185 41.09 24.0065 41.09C23.8305 41.09 23.6405 41.074 23.4365 41.042C23.2365 41.01 23.0345 40.956 22.8305 40.88C22.6265 40.8 22.4265 40.696 22.2305 40.568C22.0345 40.436 21.8565 40.274 21.6965 40.082L22.1225 39.542C22.1825 39.45 22.2725 39.404 22.3925 39.404C22.4845 39.404 22.5725 39.434 22.6565 39.494C22.7405 39.55 22.8365 39.614 22.9445 39.686C23.0565 39.754 23.1885 39.818 23.3405 39.878C23.4925 39.934 23.6825 39.962 23.9105 39.962C24.2825 39.962 24.5645 39.878 24.7565 39.71C24.9485 39.542 25.0445 39.332 25.0445 39.08C25.0445 38.832 24.9445 38.638 24.7445 38.498C24.5485 38.358 24.2285 38.288 23.7845 38.288H23.0885V37.322H23.7845C24.1725 37.322 24.4705 37.254 24.6785 37.118C24.8865 36.982 24.9905 36.802 24.9905 36.578C24.9905 36.374 24.8985 36.206 24.7145 36.074C24.5345 35.942 24.2665 35.876 23.9105 35.876C23.6985 35.876 23.5185 35.898 23.3705 35.942C23.2225 35.986 23.0945 36.034 22.9865 36.086C22.8825 36.134 22.7945 36.18 22.7225 36.224C22.6505 36.268 22.5825 36.29 22.5185 36.29C22.4505 36.29 22.3925 36.278 22.3445 36.254C22.2965 36.226 22.2445 36.168 22.1885 36.08L21.8525 35.51ZM33.1468 34.844V41H31.6648V37.406C31.6648 37.314 31.6688 37.214 31.6768 37.106C31.6888 36.994 31.7028 36.882 31.7188 36.77C31.6388 36.954 31.5508 37.116 31.4548 37.256C31.4468 37.264 31.4068 37.32 31.3348 37.424C31.2628 37.524 31.1688 37.654 31.0528 37.814C30.9408 37.974 30.8128 38.156 30.6688 38.36C30.5248 38.56 30.3788 38.764 30.2308 38.972C29.8828 39.464 29.4888 40.02 29.0488 40.64C28.9928 40.724 28.9188 40.806 28.8268 40.886C28.7388 40.966 28.6368 41.006 28.5208 41.006H27.6148V34.85H29.0968V38.444C29.0968 38.536 29.0908 38.638 29.0788 38.75C29.0708 38.858 29.0588 38.968 29.0428 39.08C29.1308 38.884 29.2188 38.722 29.3068 38.594C29.3108 38.586 29.3488 38.532 29.4208 38.432C29.4928 38.332 29.5848 38.202 29.6968 38.042C29.8128 37.882 29.9428 37.702 30.0868 37.502C30.2308 37.298 30.3768 37.09 30.5248 36.878C30.8728 36.386 31.2688 35.83 31.7128 35.21C31.7688 35.122 31.8428 35.04 31.9348 34.964C32.0268 34.884 32.1308 34.844 32.2468 34.844H33.1468ZM39.9749 34.844V41H38.4929V38.276H36.0929V41H34.6109V34.844H36.0929V37.178H38.4929V34.844H39.9749ZM44.6949 38.372C44.2669 38.392 43.9069 38.43 43.6149 38.486C43.3229 38.538 43.0889 38.606 42.9129 38.69C42.7369 38.774 42.6109 38.872 42.5349 38.984C42.4589 39.096 42.4209 39.218 42.4209 39.35C42.4209 39.61 42.4969 39.796 42.6489 39.908C42.8049 40.02 43.0069 40.076 43.2549 40.076C43.5589 40.076 43.8209 40.022 44.0409 39.914C44.2649 39.802 44.4829 39.634 44.6949 39.41V38.372ZM41.2989 35.702C42.0069 35.054 42.8589 34.73 43.8549 34.73C44.2149 34.73 44.5369 34.79 44.8209 34.91C45.1049 35.026 45.3449 35.19 45.5409 35.402C45.7369 35.61 45.8849 35.86 45.9849 36.152C46.0889 36.444 46.1409 36.764 46.1409 37.112V41H45.4689C45.3289 41 45.2209 40.98 45.1449 40.94C45.0689 40.896 45.0089 40.81 44.9649 40.682L44.8329 40.238C44.6769 40.378 44.5249 40.502 44.3769 40.61C44.2289 40.714 44.0749 40.802 43.9149 40.874C43.7549 40.946 43.5829 41 43.3989 41.036C43.2189 41.076 43.0189 41.096 42.7989 41.096C42.5389 41.096 42.2989 41.062 42.0789 40.994C41.8589 40.922 41.6689 40.816 41.5089 40.676C41.3489 40.536 41.2249 40.362 41.1369 40.154C41.0489 39.946 41.0049 39.704 41.0049 39.428C41.0049 39.272 41.0309 39.118 41.0829 38.966C41.1349 38.81 41.2189 38.662 41.3349 38.522C41.4549 38.382 41.6089 38.25 41.7969 38.126C41.9849 38.002 42.2149 37.894 42.4869 37.802C42.7629 37.71 43.0829 37.636 43.4469 37.58C43.8109 37.52 44.2269 37.484 44.6949 37.472V37.112C44.6949 36.7 44.6069 36.396 44.4309 36.2C44.2549 36 44.0009 35.9 43.6689 35.9C43.4289 35.9 43.2289 35.928 43.0689 35.984C42.9129 36.04 42.7749 36.104 42.6549 36.176C42.5349 36.244 42.4249 36.306 42.3249 36.362C42.2289 36.418 42.1209 36.446 42.0009 36.446C41.8969 36.446 41.8089 36.42 41.7369 36.368C41.6649 36.312 41.6069 36.248 41.5629 36.176L41.2989 35.702Z" fill="#2D2D2D"/>
</svg>

<svg width="47" height="44" fill="none" xmlns="http://www.w3.org/2000/svg"><path d="M17.75 22.5a2.497 2.497 0 0 0-2.488 2.5c0 1.375 1.113 2.5 2.488 2.5s2.5-1.125 2.5-2.5-1.125-2.5-2.5-2.5Zm-7.5-20V5h2.5l4.5 9.488-1.688 3.062c-.2.35-.312.762-.312 1.2 0 1.375 1.125 2.5 2.5 2.5h15v-2.5H18.275a.31.31 0 0 1-.313-.313l.038-.15 1.125-2.037h9.313c.937 0 1.762-.512 2.187-1.287L35.1 6.85A1.254 1.254 0 0 0 34 5H15.512l-1.175-2.5H10.25Zm20 20a2.497 2.497 0 0 0-2.488 2.5c0 1.375 1.113 2.5 2.488 2.5s2.5-1.125 2.5-2.5-1.125-2.5-2.5-2.5ZM8.328 41H6.864a.611.611 0 0 1-.384-.12c-.1-.08-.194-.198-.282-.354L4.35 37.61a.854.854 0 0 0-.156-.204.608.608 0 0 0-.174-.132.568.568 0 0 0-.21-.072 1.71 1.71 0 0 0-.264-.018H2.58V41H.966v-8.676H2.58v3.636h.816a1 1 0 0 0 .426-.084.872.872 0 0 0 .336-.312l1.902-2.808c.08-.128.174-.232.282-.312a.637.637 0 0 1 .39-.12h1.38l-2.358 3.48a1.508 1.508 0 0 1-.786.612c.24.068.442.176.606.324.168.144.328.344.48.6L8.328 41Zm3.015-6.252c.456 0 .87.074 1.242.222a2.692 2.692 0 0 1 1.578 1.626c.144.392.216.83.216 1.314 0 .488-.072.928-.216 1.32-.144.392-.35.726-.618 1.002a2.653 2.653 0 0 1-.96.636 3.333 3.333 0 0 1-1.242.222c-.46 0-.878-.074-1.254-.222a2.712 2.712 0 0 1-.966-.636 2.922 2.922 0 0 1-.618-1.002 3.807 3.807 0 0 1-.216-1.32c0-.484.072-.922.216-1.314.148-.392.354-.724.618-.996.268-.272.59-.482.966-.63a3.397 3.397 0 0 1 1.254-.222Zm0 5.202c.512 0 .89-.172 1.134-.516.248-.344.372-.848.372-1.512s-.124-1.17-.372-1.518c-.244-.348-.622-.522-1.134-.522-.52 0-.906.176-1.158.528-.248.348-.372.852-.372 1.512s.124 1.164.372 1.512c.252.344.638.516 1.158.516Zm5.648-.546c.168.204.35.348.546.432.2.084.416.126.648.126.224 0 .426-.042.606-.126.18-.084.332-.212.456-.384.128-.172.226-.388.294-.648.068-.264.102-.574.102-.93 0-.36-.03-.664-.09-.912a1.73 1.73 0 0 0-.246-.612.978.978 0 0 0-.396-.342 1.206 1.206 0 0 0-.522-.108c-.308 0-.57.066-.786.198-.216.128-.42.31-.612.546v2.76Zm-.078-3.72a3.21 3.21 0 0 1 .858-.69c.32-.176.696-.264 1.128-.264a2 2 0 0 1 .918.21c.28.14.52.344.72.612.204.264.36.592.468.984.112.388.168.834.168 1.338 0 .46-.062.886-.186 1.278a3.095 3.095 0 0 1-.534 1.02 2.447 2.447 0 0 1-.834.678c-.324.16-.688.24-1.092.24-.344 0-.638-.052-.882-.156a2.201 2.201 0 0 1-.654-.444v2.52H15.51v-8.166h.906c.192 0 .318.09.378.27l.12.57Zm4.94-.174c.231-.224.52-.406.863-.546.345-.144.756-.216 1.236-.216.38 0 .718.046 1.014.138.296.088.544.21.744.366.204.152.358.328.462.528a1.262 1.262 0 0 1 .108.984 1.406 1.406 0 0 1-.474.702c-.127.1-.285.186-.473.258.336.128.606.316.81.564.207.248.311.554.311.918 0 .3-.07.566-.21.798-.136.232-.317.43-.546.594-.227.16-.49.282-.785.366a3.26 3.26 0 0 1-.907.126c-.175 0-.366-.016-.57-.048a3.17 3.17 0 0 1-.605-.162 3.302 3.302 0 0 1-.6-.312 2.545 2.545 0 0 1-.535-.486l.426-.54a.3.3 0 0 1 .27-.138c.093 0 .18.03.265.09l.288.192c.111.068.244.132.395.192.152.056.343.084.57.084.372 0 .654-.084.846-.252a.803.803 0 0 0 .288-.63c0-.248-.1-.442-.3-.582-.195-.14-.515-.21-.96-.21h-.695v-.966h.696c.387 0 .686-.068.893-.204.209-.136.313-.316.313-.54 0-.204-.093-.372-.276-.504-.18-.132-.448-.198-.805-.198-.212 0-.392.022-.54.066a2.597 2.597 0 0 0-.384.144 2.61 2.61 0 0 0-.264.138.386.386 0 0 1-.378.03.527.527 0 0 1-.155-.174l-.337-.57Zm11.294-.666V41h-1.482v-3.594c0-.092.004-.192.012-.3a9.63 9.63 0 0 1 .042-.336 2.91 2.91 0 0 1-.384.654l-.282.39-.384.546-.438.612-1.182 1.668c-.056.084-.13.166-.222.246a.441.441 0 0 1-.306.12h-.906V34.85h1.482v3.594c0 .092-.006.194-.018.306-.008.108-.02.218-.036.33a3.127 3.127 0 0 1 .378-.648c.072-.1.164-.23.276-.39l.39-.54.438-.624c.348-.492.744-1.048 1.188-1.668.056-.088.13-.17.222-.246a.463.463 0 0 1 .312-.12h.9Zm6.828 0V41h-1.482v-2.724h-2.4V41H34.61v-6.156h1.482v2.334h2.4v-2.334h1.482Zm4.72 3.528c-.428.02-.788.058-1.08.114-.292.052-.526.12-.702.204a.923.923 0 0 0-.378.294.639.639 0 0 0-.114.366c0 .26.076.446.228.558.156.112.358.168.606.168.304 0 .566-.054.786-.162.224-.112.442-.28.654-.504v-1.038Zm-3.396-2.67c.708-.648 1.56-.972 2.556-.972.36 0 .682.06.966.18.284.116.524.28.72.492.196.208.344.458.444.75.104.292.156.612.156.96V41h-.672a.708.708 0 0 1-.324-.06c-.076-.044-.136-.13-.18-.258l-.132-.444c-.156.14-.308.264-.456.372a2.804 2.804 0 0 1-.462.264c-.16.072-.332.126-.516.162-.18.04-.38.06-.6.06-.26 0-.5-.034-.72-.102a1.618 1.618 0 0 1-.57-.318 1.414 1.414 0 0 1-.372-.522 1.852 1.852 0 0 1-.132-.726 1.419 1.419 0 0 1 .33-.906c.12-.14.274-.272.462-.396s.418-.232.69-.324c.276-.092.596-.166.96-.222.364-.06.78-.096 1.248-.108v-.36c0-.412-.088-.716-.264-.912-.176-.2-.43-.3-.762-.3-.24 0-.44.028-.6.084-.156.056-.294.12-.414.192l-.33.186a.631.631 0 0 1-.324.084.439.439 0 0 1-.264-.078.716.716 0 0 1-.174-.192l-.264-.474Z" fill="#2D2D2D"/></svg>
